X: 1
T: Cullen House
R: Reel
B: The Athole Collection
S: printed version from Barbara McOwen, via Terry Traub, BHSFS 2015
M: C|
L: 1/8
K: D
B |\
"D"A2AF AF"G"dB | "D"A2AF "A7"GEEB |\
"D"A2AF AF"G"dB | "A7"AFGE "D"FDD :|
c |\
"D"d2fd adfd | "D"d2fd "Em"eBBe |\
"D"d2fd adfd | "G"Bd"A"Ad "D"FDD ||
c |\
"D"d2fd adfd | "D"d2fd "Em"eBBg |\
"D"fd"A"ec "G"dBAB | "A7"dfeg "D"fdd |]
